X:1
T:Title
%%score { 1 | 2 }
L:1/8
Q:1/4=100
M:3/4
K:Db
V:1 treble nm="Grand Piano"
V:2 bass 
V:1
 F3 E D2 | F3 E D2 | d3 c B2 | A4 z2 | F3 E D2 | [DF]3 E D2 | B,3 C D2 | [CE]4 z2 | F3 E D2 | %9
w: B.~E.~Warren * *|||||||||
 F3 E D2 | [Fd]3 [Fc] [FB]2 | [FA]4 z2 | [Af]3 [Ge] [Fd]2 | [Gd]3 c B2 | A3 B [Gc]2 | [Fd]4 z2 | %16
w: |||||||
 e3 c A2 | [EG]3 [CE] C2 | D3 F B2 | A4 z2 | e3 c A2 | [EG]3 [CE] C2 | D3 F [GB]2 | [FA]4 z2 | %24
w: ||||||||
 F3 E D2 | F3 E D2 | d3 c B2 | A4 z2 | [Af]3 [Ae] [Ad]2 | d3 c B2 | A3 B [Gc]2 | [Fd]4 z2 |] %32
w: ||||||||
V:2
 [D,A,D]3 [D,G,A,] [D,F,A,]2 | [D,A,D]3 [D,G,A,] [D,F,A,]2 | [D,B,D]3 [D,A,D] [D,G,D]2 | %3
 [D,F,D]4 z2 | [D,A,D]3 [D,G,A,] [D,F,A,]2 | [B,,B,]3 [C,A,] [D,F,A,]2 | %6
 [E,G,]3 [E,=G,B,] [E,G,B,]2 | [A,,A,]4 z2 | [D,A,D]3 [D,G,D] [D,F,]2 | [D,A,D]3 [D,G,D] [D,F,]2 | %10
 [D,A,]3 [D,B,] [D,C]2 | [D,D]4 z2 | [D,D]3 [D,A,] [D,A,]2 | %13
 [B,,G,B,]3 [G,B,G][K:treble] [=G,D_F]2 | [A,DF]3 [A,G][K:bass] [A,,A,]2 | [D,A,]4 z2 | %16
 [A,G]3 [A,E][K:bass] [A,C]2 | [A,,A,]3 [A,,A,] [A,,G,A,]2 | [D,F,A,]3 [D,A,D] [D,G,D]2 | %19
 [D,F,D]4 z2 | [A,G]3 [A,E][K:bass] [A,C]2 | [A,,A,]3 [A,,A,] [A,,G,A,]2 | %22
 [D,F,A,]3 [D,A,D] [D,D]2 | [D,D]4 z2 | [D,A,D]3 [D,G,A,] [D,F,A,]2 | [D,A,D]3 [D,G,A,] [D,F,A,]2 | %26
 [D,B,D]3 [D,A,D] [D,G,D]2 | [D,F,D]4 z2 | [D,D]3 [E,C] [F,D]2 | %29
 [G,B,G]3 [G,CG][K:treble] [G,DG]2 | [A,DF]3 [A,G][K:bass] [A,,A,]2 | [D,A,]4 z2 |] %32

